!!!!SEGMENT: Distler_Jahrkreis_14_Jesu-deine-Passion.krn
!!!COM: Distler, Hugo
!!!CDT: 1908-1942
!!!OPR@@DE: Der Jahrkreis
!!!OPR@EN: The Year Cycle
!!!OTL@@DE: Jesu, deine Passion
!!!OTL@EN: Jesus, your Passion
!!!OPS: 5
!!!ONM: 14
**kern	**text	**kern	**text	**kern	**text
*part3	*part3	*part2	*part2	*part1	*part1
*staff3	*staff3	*staff2	*staff2	*staff1	*staff1
*Ialto	*	*Isoprn	*	*Isoprn	*
*clefG2	*	*clefG2	*	*clefG2	*
*k[b-e-]	*	*k[b-e-]	*	*k[b-e-]	*
*MM80	*	*MM80	*	*MM80	*
*M4/4	*	*M4/4	*	*M4/4	*
=1	=1	=1	=1	=1	=1
4g	Je-	4dd	Je-	4dd	Je-
4a	su,	4dd	su,	4dd	su,
4.b-	dei-	4dd	dei-	4ff	dei-
.	.	4cc	ne	4ff	ne
8a	ne	.	.	.	.
=2	=2	=2	=2	=2	=2
4g	Pas-	(8ddL	Pas-	4dd	Pas-
.	.	8ccJ)	.	.	.
4g	si-	4b-	si-	4dd	si-
2d,	on	2a,	on	2ff,	on
=3	=3	=3	=3	=3	=3
4b-	will	4g	will	4dd	will
4a	ich	4f	ich	4ff	ich
4g	jetzt	4.g	jetzt	4ee-	jetzt
4f	be-	.	.	4dd	be-
.	.	8a	be-	.	.
=4	=4	=4	=4	=4	=4
2g	den-	(4cc	den-	2dd	den-
.	.	4b-)	.	.	.
4f,	ken;	2a,	ken;	4dd,	ken;
[4e-	wol-	.	.	[4b-	wol-
=5	=5	=5	=5	=5	=5
4e-]	.	4g	wol-	8b-]	.
.	.	.	.	8b-	lest
4a	lest	4a	lest	4cc	mir
4a	mir	4b-	mir	4dd	vom
4d	vom	4g	vom	([4ee-	Him-
=6	=6	=6	=6	=6	=6
4b-	Him-	(8gL	Him-	8ee-L]	.
.	.	8fJ)	.	8ddJ)	.
4a	mels-	4e-	mels-	4cc	mels-
4g,	thron	2d,	thron	2dd	thron
[4f	Geist,	.	.	.	.
=7	=7	=7	=7	=7	=7
8f],	.	4c	Geist	4.a-	Geist
4f	Geist	.	.	.	.
.	.	4B-	und	.	.
8e-	und	.	.	8b-	und
4f	An-	4c	An-	4a-	An-
4f	dacht	4d	dacht	4a-	dacht
=8	=8	=8	=8	=8	=8
2c	schen-	(4f	schen-	2g	schen-
.	.	4e-)	.	.	.
2g,	ken.	2d,	ken.	2g,	ken.
=9	=9	=9	=9	=9	=9
4c	In	4g	In	4ee-	In
4f	dem	4g	dem	4cc	dem
4e-	Bil-	4g	Bil-	4a-	Bil-
4d	de	[4f	de	4a-	de
=10	=10	=10	=10	=10	=10
8d	jetzt	4f]	.	4dd	jetzt
8c	er-	.	.	.	.
2d,	schein,	8e-	jetzt	4b-	er-
.	.	8d	er-	.	.
.	.	4c,	schein	4g,	schein,
[4d	Je-	[4f	Je-	[4a	Je-
=11	=11	=11	=11	=11	=11
4d]	.	8f]	.	4a]	.
.	.	8f	su,	.	.
4d	su,	(4.g	mei-	4cc	su,
2g	mei-	.	.	4dd	mei-
.	.	8a)	.	.	.
.	.	4b-	nem	4ee-	nem
=12	=12	=12	=12	=12	=12
4g	nem	(4cc	Her-	2dd	Her-
4g	Her-	4b-)	.	.	.
4f,	zen,	2a,	zen,	4dd,	zen,
[4e-	wie	.	.	[4b-	wie
=13	=13	=13	=13	=13	=13
4e-]	.	4g	wie	8b-]	.
.	.	.	.	8b-	du,
4a	du,	4a	du,	4cc	un-
4a	un-	4b-	un-	4dd	ser
4d	ser	4g	ser	([4ee-	Heil
=14	=14	=14	=14	=14	=14
4b-	Heil	(8gL	Heil	8ee-L]	.
.	.	8fJ)	.	8ddJ)	.
4a	zu	4e-	zu	4cc	zu
4g,	sein,	2d,	sein,	2dd,	sein,
4f	lit-	.	.	.	.
=15	=15	=15	=15	=15	=15
8f	test	4c	lit-	4.a-	lit-
4f	al-	.	.	.	.
.	.	4B-	test	.	.
8e-	le	.	.	8b-	test
2f	Schmer-	4c	al-	4a-	al-
.	.	4d	le	4a-	le
=16	=16	=16	=16	=16	=16
4c,	zen,	(4f	Schmer-	2g	Schmer-
*^	*	*	*	*	*
8c	8c	al-	4e-)	.	.	.
8B-	8B-	le	.	.	.	.
2c	2G	Schmer-	[2d	zen.	[2g	zen.
=17	=17	=17	=17	=17	=17	=17
2B	2G	zen.	2d]	.	2g]	.
*v	*v	*	*	*	*	*
==	==	==	==	==	==
*-	*-	*-	*-	*-	*-
!!!YOR: Bärenreiter-Ausgabe 676
!!!YOY: 1933
!!!EFL: 14/52
!!!URL-pdf: https://imslp.eu/files/imglnks/euimg/7/7d/IMSLP834545-PMLP518834-5-jahrkreis-EA--original-paper-600dpi.pdf#page=29 First edition, Kassel: Bärenreiter, 1933. Plate BA 676.
!!!URL-imslp: https://imslp.org/wiki/Der_Jahrkreis,_Op.5_(Distler,_Hugo)#IMSLP834545
!!!system-decoration: [(s1,s2,s3)]
!!!ENC: Lucas Hofmann
!!!END: 2023/10/18
!!!title: @{OPR@@DE}, Op. @{OPS}, Nr. @{ONM}. @{OTL@@DE}
